X: 12
T:Hunt the Squirrel, Headington 3
M:4/4
L:1/8
A:Headington
P:A(A2B2)4
K:G
Q:364
P:A
G2B>c d2B2|G2B>c d2B2|G2B>c d2B2|AGAB G4||
P:B
G2c2  B2d2|c2eG  G4  |Aced  cBAG|A4   G4||
